X:1
T:We'll Rant and We'll Roar
M:6/8
L:1/8
K:G
 z4 z D| GGGG-A B| cAG FDD| AAA A2 B| cBA d2B/2-c/2| ddd BGB| cAG FDd/2-c/2|\
 BAB cAG| FEF G2 z|
